;FLAVOR:Marlin
;TIME:4694
;Filament used: 4.6175m
;Layer height: 0.15
;MINX:60.373
;MINY:40.694
;MINZ:0.3
;MAXX:139.627
;MAXY:159.306
;MAXZ:13.05
;Generated with Cura_SteamEngine 4.11.0
M140 S60
M105
M190 S60
M104 S210
M105
M109 S210
M82 ;absolute extrusion mode
G21 ;metric values
 G90 ;absolute positioning
 M82 ;set extruder to absolute mode
 M107 ;start with the fan off
 G28 X0 Y0 ;move X/Y to min endstops
 G28 Z0 ;move Z to min endstops
 G1 Z15.0 F120 ;move the platform down 15mm
 G92 E0 ;zero the extruded length
 G1 F200 E6 ;extrude 6 mm of feed stock
 G92 E0 ;zero the extruded length again
 G1 F120 
 ;Put printing message on LCD screen
 M117 Printing...
G92 E0
G92 E0
G1 F2400 E-3
;LAYER_COUNT:86
;LAYER:0
M107
G0 F3600 X61.771 Y44.041 Z0.3
;TYPE:SKIRT
G1 F2400 E0
G1 F1800 X62.254 Y43.417 E0.03937
G1 X62.797 Y42.844 E0.07875
G1 X63.396 Y42.329 E0.11816
G1 X64.044 Y41.878 E0.15755
G1 X64.735 Y41.494 E0.19699
G1 X65.46 Y41.182 E0.23637
G1 X66.213 Y40.945 E0.27575
G1 X66.987 Y40.786 E0.31517
G1 X67.772 Y40.705 E0.35455
G1 X68.174 Y40.695 E0.37461
G1 X131.827 Y40.694 E3.55027
G1 X132.616 Y40.734 E3.58968
G1 X133.396 Y40.853 E3.62905
G1 X134.161 Y41.051 E3.66847
G1 X134.901 Y41.325 E3.70784
G1 X135.61 Y41.673 E3.74724
G1 X136.281 Y42.09 E3.78666
G1 X136.905 Y42.574 E3.82606
G1 X137.478 Y43.117 E3.86544
G1 X137.993 Y43.716 E3.90485
G1 X138.444 Y44.364 E3.94424
G1 X138.828 Y45.054 E3.98363
G1 X139.14 Y45.78 E4.02306
G1 X139.377 Y46.533 E4.06244
G1 X139.536 Y47.307 E4.10186
G1 X139.617 Y48.092 E4.14124
G1 X139.627 Y48.494 E4.1613
G1 X139.626 Y151.505 E9.30054
G1 X139.586 Y152.294 E9.33995
G1 X139.466 Y153.074 E9.37932
G1 X139.269 Y153.839 E9.41873
G1 X138.995 Y154.579 E9.4581
G1 X138.647 Y155.288 E9.49751
G1 X138.229 Y155.959 E9.53695
G1 X137.746 Y156.583 E9.57631
G1 X137.202 Y157.156 E9.61573
G1 X136.604 Y157.671 E9.65511
G1 X135.956 Y158.122 E9.69449
G1 X135.265 Y158.506 E9.73393
G1 X134.54 Y158.818 E9.77331
G1 X133.787 Y159.055 E9.8127
G1 X133.013 Y159.214 E9.85212
G1 X132.228 Y159.295 E9.89149
G1 X131.826 Y159.305 E9.91155
G1 X68.173 Y159.306 E13.08721
G1 X67.384 Y159.266 E13.12663
G1 X66.604 Y159.147 E13.16599
G1 X65.839 Y158.949 E13.20541
G1 X65.099 Y158.675 E13.24478
G1 X64.39 Y158.327 E13.28419
G1 X63.719 Y157.91 E13.3236
G1 X63.095 Y157.426 E13.363
G1 X62.522 Y156.883 E13.40238
G1 X62.007 Y156.284 E13.44179
G1 X61.556 Y155.636 E13.48118
G1 X61.172 Y154.946 E13.52058
G1 X60.86 Y154.22 E13.56
G1 X60.623 Y153.467 E13.59938
G1 X60.464 Y152.693 E13.63881
G1 X60.383 Y151.908 E13.67818
G1 X60.373 Y151.506 E13.69824
G1 X60.373 Y68 E17.86437
G1 X60.413 Y67.211 E17.90379
G1 X60.532 Y66.431 E17.94315
G1 X60.73 Y65.666 E17.98257
G1 X61.004 Y64.926 E18.02194
G1 X61.352 Y64.217 E18.06135
G1 X61.77 Y63.546 E18.10079
G1 X62.253 Y62.922 E18.14015
G1 X62.45 Y62.714 E18.15445
G1 X62.45 Y57.292 E18.42495
G1 X62.008 Y56.778 E18.45877
G1 X61.557 Y56.13 E18.49816
G1 X61.173 Y55.439 E18.5376
G1 X60.861 Y54.714 E18.57698
G1 X60.624 Y53.961 E18.61636
G1 X60.465 Y53.187 E18.65578
G1 X60.384 Y52.402 E18.69515
G1 X60.374 Y52 E18.71522
G1 X60.374 Y48.495 E18.89008
G1 X60.414 Y47.706 E18.9295
G1 X60.533 Y46.926 E18.96886
G1 X60.731 Y46.161 E19.00828
G1 X61.005 Y45.421 E19.04765
G1 X61.353 Y44.712 E19.08706
G1 X61.771 Y44.041 E19.1265
G0 F3600 X62.168 Y44.172
G1 F1800 X62.649 Y43.572 E19.16486
G1 X63.19 Y43.025 E19.20324
G1 X63.785 Y42.537 E19.24164
G1 X64.427 Y42.114 E19.27999
G1 X65.11 Y41.759 E19.3184
G1 X65.825 Y41.478 E19.35672
G1 X66.567 Y41.272 E19.39514
G1 X67.325 Y41.144 E19.43349
G1 X68.174 Y41.095 E19.47592
G1 X131.827 Y41.094 E22.65158
G1 X132.595 Y41.134 E22.68995
G1 X133.355 Y41.253 E22.72833
G1 X134.098 Y41.451 E22.76669
G1 X134.817 Y41.725 E22.80508
G1 X135.503 Y42.072 E22.84343
G1 X136.15 Y42.488 E22.88181
G1 X136.75 Y42.969 E22.92017
G1 X137.297 Y43.51 E22.95856
G1 X137.785 Y44.105 E22.99695
G1 X138.208 Y44.747 E23.0353
G1 X138.563 Y45.43 E23.07371
G1 X138.844 Y46.145 E23.11204
G1 X139.05 Y46.886 E23.15041
G1 X139.178 Y47.645 E23.18881
G1 X139.227 Y48.494 E23.23123
G1 X139.226 Y151.505 E28.37047
G1 X139.186 Y152.273 E28.40884
G1 X139.067 Y153.033 E28.44722
G1 X138.869 Y153.776 E28.48558
G1 X138.595 Y154.495 E28.52397
G1 X138.248 Y155.182 E28.56237
G1 X137.832 Y155.828 E28.6007
G1 X137.351 Y156.428 E28.63907
G1 X136.81 Y156.975 E28.67745
G1 X136.215 Y157.463 E28.71584
G1 X135.573 Y157.886 E28.7542
G1 X134.89 Y158.241 E28.7926
G1 X134.174 Y158.522 E28.83098
G1 X133.433 Y158.728 E28.86935
G1 X132.675 Y158.856 E28.9077
G1 X131.826 Y158.905 E28.95013
G1 X68.173 Y158.906 E32.12579
G1 X67.405 Y158.866 E32.16415
G1 X66.645 Y158.747 E32.20253
G1 X65.902 Y158.549 E32.24089
G1 X65.183 Y158.275 E32.27928
G1 X64.497 Y157.928 E32.31764
G1 X63.85 Y157.512 E32.35601
G1 X63.25 Y157.031 E32.39438
G1 X62.703 Y156.49 E32.43276
G1 X62.215 Y155.895 E32.47115
G1 X61.792 Y155.253 E32.50951
G1 X61.437 Y154.57 E32.54791
G1 X61.156 Y153.855 E32.58624
G1 X60.95 Y153.114 E32.62461
G1 X60.822 Y152.355 E32.66301
G1 X60.773 Y151.506 E32.70544
G1 X60.773 Y68 E36.87157
G1 X60.813 Y67.232 E36.90994
G1 X60.932 Y66.472 E36.94832
G1 X61.13 Y65.729 E36.98668
G1 X61.404 Y65.01 E37.02507
G1 X61.751 Y64.324 E37.06342
G1 X62.167 Y63.677 E37.10179
G1 X62.648 Y63.077 E37.14016
G1 X62.85 Y62.873 E37.15448
G1 X62.85 Y57.128 E37.4411
G1 X62.704 Y56.984 E37.45133
G1 X62.216 Y56.389 E37.48972
G1 X61.793 Y55.747 E37.52808
G1 X61.438 Y55.064 E37.56648
G1 X61.157 Y54.349 E37.60481
G1 X60.951 Y53.607 E37.64323
G1 X60.823 Y52.849 E37.68158
G1 X60.774 Y52 E37.72401
G1 X60.774 Y48.495 E37.89888
G1 X60.814 Y47.727 E37.93724
G1 X60.933 Y46.967 E37.97562
G1 X61.131 Y46.224 E38.01398
G1 X61.405 Y45.505 E38.05237
G1 X61.752 Y44.819 E38.09073
G1 X62.168 Y44.172 E38.1291
G0 F3600 X62.566 Y44.306
G1 F1800 X63.045 Y43.732 E38.1664
G1 X63.582 Y43.211 E38.20373
G1 X64.172 Y42.752 E38.24102
G1 X64.808 Y42.357 E38.27837
G1 X65.482 Y42.033 E38.31568
G1 X66.187 Y41.783 E38.353
G1 X66.915 Y41.609 E38.39034
G1 X67.657 Y41.514 E38.42766
G1 X68.174 Y41.495 E38.45347
G1 X131.827 Y41.494 E41.62914
G1 X132.574 Y41.534 E41.66646
G1 X133.312 Y41.653 E41.70375
G1 X134.034 Y41.851 E41.7411
G1 X134.73 Y42.124 E41.7784
G1 X135.393 Y42.471 E41.81574
G1 X136.016 Y42.886 E41.85308
G1 X136.59 Y43.365 E41.89038
G1 X137.11 Y43.902 E41.92767
G1 X137.57 Y44.492 E41.965
G1 X137.965 Y45.128 E42.00235
G1 X138.289 Y45.802 E42.03966
G1 X138.539 Y46.507 E42.07698
G1 X138.713 Y47.235 E42.11432
G1 X138.808 Y47.977 E42.15164
G1 X138.827 Y48.494 E42.17745
G1 X138.826 Y151.505 E47.31669
G1 X138.786 Y152.252 E47.35401
G1 X138.667 Y152.991 E47.39136
G1 X138.469 Y153.712 E47.42866
G1 X138.196 Y154.408 E47.46596
G1 X137.849 Y155.071 E47.50329
G1 X137.434 Y155.694 E47.54064
G1 X136.955 Y156.268 E47.57794
G1 X136.418 Y156.789 E47.61526
G1 X135.828 Y157.248 E47.65256
G1 X135.192 Y157.643 E47.68991
G1 X134.518 Y157.967 E47.72722
G1 X133.813 Y158.217 E47.76454
G1 X133.085 Y158.391 E47.80188
G1 X132.343 Y158.486 E47.8392
G1 X131.826 Y158.505 E47.86501
G1 X68.173 Y158.506 E51.04067
G1 X67.426 Y158.466 E51.078
G1 X66.688 Y158.347 E51.11529
G1 X65.966 Y158.149 E51.15264
G1 X65.27 Y157.876 E51.18994
G1 X64.607 Y157.529 E51.22727
G1 X63.984 Y157.114 E51.26462
G1 X63.41 Y156.635 E51.30192
G1 X62.89 Y156.098 E51.33921
G1 X62.43 Y155.508 E51.37654
G1 X62.035 Y154.872 E51.41389
G1 X61.711 Y154.198 E51.4512
G1 X61.461 Y153.493 E51.48852
G1 X61.287 Y152.765 E51.52586
G1 X61.192 Y152.023 E51.56318
G1 X61.173 Y151.506 E51.58899
G1 X61.173 Y68 E55.75512
G1 X61.213 Y67.253 E55.79244
G1 X61.332 Y66.515 E55.82974
G1 X61.53 Y65.793 E55.86709
G1 X61.803 Y65.097 E55.90439
G1 X62.15 Y64.434 E55.94172
G1 X62.565 Y63.811 E55.97907
G1 X63.044 Y63.237 E56.01637
G1 X63.25 Y63.037 E56.03069
G1 X63.25 Y56.963 E56.33372
G1 X62.89 Y56.592 E56.35951
G1 X62.431 Y56.002 E56.39681
G1 X62.036 Y55.366 E56.43416
G1 X61.712 Y54.692 E56.47147
G1 X61.462 Y53.987 E56.50879
G1 X61.288 Y53.259 E56.54613
G1 X61.193 Y52.517 E56.58345
G1 X61.174 Y52 E56.60926
G1 X61.174 Y48.495 E56.78413
G1 X61.214 Y47.748 E56.82145
G1 X61.333 Y47.01 E56.85874
G1 X61.531 Y46.288 E56.89609
G1 X61.804 Y45.592 E56.93339
G1 X62.151 Y44.929 E56.97073
G1 X62.566 Y44.306 E57.00807
G0 F3600 X62.963 Y44.445
G1 F1800 X63.439 Y43.897 E57.04429
G1 X63.973 Y43.404 E57.08054
G1 X64.558 Y42.974 E57.11677
G1 X65.187 Y42.61 E57.15302
G1 X65.852 Y42.317 E57.18928
G1 X66.545 Y42.099 E57.22552
G1 X67.257 Y41.959 E57.26172
G1 X68.174 Y41.895 E57.30759
G1 X131.827 Y41.894 E60.48325
G1 X132.552 Y41.934 E60.51947
G1 X133.269 Y42.053 E60.55573
G1 X133.968 Y42.251 E60.59198
G1 X134.641 Y42.524 E60.62821
G1 X135.28 Y42.869 E60.66444
G1 X135.877 Y43.283 E60.70069
G1 X136.425 Y43.759 E60.7369
G1 X136.918 Y44.293 E60.77316
G1 X137.348 Y44.878 E60.80938
G1 X137.712 Y45.507 E60.84564
G1 X138.005 Y46.171 E60.88185
G1 X138.223 Y46.864 E60.91809
G1 X138.363 Y47.577 E60.95434
G1 X138.427 Y48.494 E61.0002
G1 X138.426 Y151.505 E66.13944
G1 X138.386 Y152.23 E66.17567
G1 X138.267 Y152.947 E66.21193
G1 X138.069 Y153.646 E66.24817
G1 X137.796 Y154.319 E66.28441
G1 X137.451 Y154.958 E66.32064
G1 X137.037 Y155.555 E66.35688
G1 X136.561 Y156.103 E66.39309
G1 X136.027 Y156.596 E66.42935
G1 X135.442 Y157.026 E66.46558
G1 X134.813 Y157.39 E66.50183
G1 X134.148 Y157.683 E66.53809
G1 X133.455 Y157.901 E66.57433
G1 X132.743 Y158.041 E66.61053
G1 X131.826 Y158.105 E66.65639
G1 X68.173 Y158.106 E69.83205
G1 X67.448 Y158.066 E69.86828
G1 X66.731 Y157.947 E69.90454
G1 X66.032 Y157.749 E69.94079
G1 X65.359 Y157.476 E69.97702
G1 X64.72 Y157.131 E70.01325
G1 X64.123 Y156.717 E70.04949
G1 X63.575 Y156.241 E70.08571
G1 X63.082 Y155.707 E70.12197
G1 X62.652 Y155.122 E70.15819
G1 X62.288 Y154.493 E70.19445
G1 X61.995 Y153.829 E70.23065
G1 X61.777 Y153.136 E70.2669
G1 X61.637 Y152.423 E70.30315
G1 X61.573 Y151.506 E70.34901
G1 X61.573 Y68 E74.51514
G1 X61.613 Y67.275 E74.55137
G1 X61.732 Y66.558 E74.58763
G1 X61.93 Y65.859 E74.62387
G1 X62.203 Y65.186 E74.66011
G1 X62.548 Y64.547 E74.69634
G1 X62.962 Y63.95 E74.73258
G1 X63.438 Y63.402 E74.76879
G1 X63.65 Y63.206 E74.7832
G1 X63.65 Y56.799 E75.10285
G1 X63.576 Y56.735 E75.10773
G1 X63.083 Y56.201 E75.14399
G1 X62.653 Y55.616 E75.18021
G1 X62.289 Y54.987 E75.21646
G1 X61.996 Y54.322 E75.25272
G1 X61.778 Y53.629 E75.28896
G1 X61.638 Y52.917 E75.32517
G1 X61.574 Y52 E75.37103
G1 X61.574 Y48.495 E75.54589
G1 X61.614 Y47.77 E75.58212
G1 X61.733 Y47.053 E75.61838
G1 X61.931 Y46.354 E75.65462
G1 X62.204 Y45.681 E75.69086
G1 X62.549 Y45.042 E75.72709
G1 X62.963 Y44.445 E75.76333
G0 F3600 X62.948 Y45.16
G1 F1800 X63.359 Y44.589 E75.79843
G1 X63.833 Y44.068 E75.83357
G1 X64.363 Y43.604 E75.86871
G1 X64.942 Y43.204 E75.90382
G1 X65.563 Y42.872 E75.93895
G1 X66.217 Y42.612 E75.97407
G1 X66.897 Y42.428 E76.00921
G1 X67.593 Y42.322 E76.04434
G1 X68.174 Y42.295 E76.07335
G1 X131.827 Y42.294 E79.24901
G1 X132.53 Y42.334 E79.28414
G1 X133.224 Y42.453 E79.31927
G1 X133.899 Y42.651 E79.35437
G1 X134.548 Y42.923 E79.38948
G1 X135.162 Y43.268 E79.42461
G1 X135.733 Y43.679 E79.45971
G1 X136.254 Y44.153 E79.49485
G1 X136.718 Y44.683 E79.53
G1 X137.118 Y45.262 E79.56511
G1 X137.45 Y45.883 E79.60024
G1 X137.71 Y46.537 E79.63535
G1 X137.894 Y47.217 E79.67049
G1 X138 Y47.913 E79.70562
G1 X138.027 Y48.494 E79.73464
G1 X138.026 Y151.505 E84.87388
G1 X137.986 Y152.208 E84.90901
G1 X137.867 Y152.902 E84.94413
G1 X137.669 Y153.577 E84.97923
G1 X137.397 Y154.227 E85.01438
G1 X137.052 Y154.841 E85.04952
G1 X136.64 Y155.411 E85.08461
G1 X136.167 Y155.932 E85.11971
G1 X135.637 Y156.396 E85.15486
G1 X135.058 Y156.796 E85.18997
G1 X134.437 Y157.128 E85.2251
G1 X133.783 Y157.388 E85.26021
G1 X133.103 Y157.572 E85.29536
G1 X132.407 Y157.678 E85.33048
G1 X131.826 Y157.705 E85.3595
G1 X68.173 Y157.706 E88.53516
G1 X67.47 Y157.666 E88.57029
G1 X66.776 Y157.547 E88.60542
G1 X66.101 Y157.349 E88.64051
G1 X65.452 Y157.077 E88.67562
G1 X64.838 Y156.732 E88.71076
G1 X64.267 Y156.321 E88.74586
G1 X63.746 Y155.847 E88.781
G1 X63.282 Y155.317 E88.81614
G1 X62.882 Y154.738 E88.85125
G1 X62.55 Y154.117 E88.88638
G1 X62.29 Y153.463 E88.92149
G1 X62.106 Y152.783 E88.95664
G1 X62 Y152.087 E88.99176
G1 X61.973 Y151.506 E89.02078
G1 X61.973 Y68 E93.18691
G1 X62.013 Y67.297 E93.22204
G1 X62.132 Y66.603 E93.25717
G1 X62.33 Y65.928 E93.29226
G1 X62.602 Y65.279 E93.32737
G1 X62.947 Y64.665 E93.36251
G1 X63.358 Y64.094 E93.39761
G1 X63.832 Y63.573 E93.43275
G1 X64.05 Y63.382 E93.44721
G1 X64.05 Y56.617 E93.78472
G1 X63.747 Y56.341 E93.80516
G1 X63.283 Y55.811 E93.84031
G1 X62.883 Y55.232 E93.87542
G1 X62.551 Y54.611 E93.91055
G1 X62.291 Y53.957 E93.94566
G1 X62.107 Y53.277 E93.98081
G1 X62.001 Y52.581 E94.01593
G1 X61.974 Y52 E94.04495
G1 X61.974 Y48.495 E94.21981
G1 X62.014 Y47.792 E94.25494
G1 X62.133 Y47.098 E94.29007
G1 X62.331 Y46.423 E94.32517
G1 X62.603 Y45.774 E94.36027
G1 X62.948 Y45.16 E94.39541
G0 F3600 X63.346 Y45.281
G1 F1800 X63.756 Y44.737 E94.4294
G1 X64.227 Y44.246 E94.46334
G1 X64.752 Y43.812 E94.49732
G1 X65.324 Y43.443 E94.53128
G1 X65.936 Y43.144 E94.56527
G1 X66.578 Y42.919 E94.59921
G1 X67.243 Y42.77 E94.6332
G1 X68.174 Y42.695 E94.6798
G1 X131.827 Y42.694 E97.85546
G1 X132.507 Y42.734 E97.88945
G1 X133.177 Y42.853 E97.9234
G1 X133.829 Y43.05 E97.95738
G1 X134.453 Y43.322 E97.99134
G1 X135.041 Y43.666 E98.02533
G1 X135.584 Y44.076 E98.05927
G1 X136.076 Y44.547 E98.09325
G1 X136.51 Y45.072 E98.12724
G1 X136.879 Y45.644 E98.16119
G1 X137.178 Y46.256 E98.19518
G1 X137.403 Y46.898 E98.22912
G1 X137.552 Y47.563 E98.26312
G1 X137.627 Y48.494 E98.30971
G1 X137.626 Y151.505 E103.44895
G1 X137.586 Y152.185 E103.48294
G1 X137.467 Y152.855 E103.51689
G1 X137.27 Y153.507 E103.55087
G1 X136.997 Y154.131 E103.58485
G1 X136.654 Y154.719 E103.61881
G1 X136.244 Y155.263 E103.6528
G1 X135.773 Y155.754 E103.68674
G1 X135.248 Y156.188 E103.72072
G1 X134.676 Y156.557 E103.75468
G1 X134.064 Y156.856 E103.78867
G1 X133.422 Y157.081 E103.82261
G1 X132.757 Y157.23 E103.8566
G1 X131.826 Y157.305 E103.9032
G1 X68.173 Y157.306 E107.07886
G1 X67.493 Y157.266 E107.11285
G1 X66.823 Y157.147 E107.1468
G1 X66.171 Y156.95 E107.18078
G1 X65.547 Y156.678 E107.21474
G1 X64.959 Y156.334 E107.24873
G1 X64.416 Y155.924 E107.28267
G1 X63.924 Y155.453 E107.31665
G1 X63.49 Y154.928 E107.35064
G1 X63.121 Y154.356 E107.3846
G1 X62.822 Y153.744 E107.41858
G1 X62.597 Y153.102 E107.45252
G1 X62.448 Y152.437 E107.48652
G1 X62.373 Y151.506 E107.53311
G1 X62.373 Y68 E111.69925
G1 X62.413 Y67.32 E111.73323
G1 X62.532 Y66.65 E111.76718
G1 X62.729 Y65.998 E111.80116
G1 X63.001 Y65.374 E111.83512
G1 X63.345 Y64.786 E111.86911
G1 X63.755 Y64.242 E111.90309
G1 X64.226 Y63.751 E111.93704
G1 X64.45 Y63.566 E111.95153
G1 X64.45 Y56.444 E112.30685
G1 X64.416 Y56.418 E112.30898
G1 X63.925 Y55.947 E112.34293
G1 X63.491 Y55.422 E112.37691
G1 X63.122 Y54.85 E112.41087
G1 X62.823 Y54.238 E112.44485
G1 X62.598 Y53.596 E112.47879
G1 X62.449 Y52.931 E112.51279
G1 X62.374 Y52 E112.55939
G1 X62.374 Y48.495 E112.73426
G1 X62.414 Y47.815 E112.76824
G1 X62.533 Y47.145 E112.80219
G1 X62.73 Y46.493 E112.83617
G1 X63.002 Y45.869 E112.87013
G1 X63.346 Y45.281 E112.90412
G0 F3600 X63.744 Y45.407
G1 F1800 X64.152 Y44.892 E112.9369
G1 X64.619 Y44.43 E112.96967
G1 X65.139 Y44.029 E113.00243
G1 X65.703 Y43.693 E113.03519
G1 X66.305 Y43.429 E113.06798
G1 X66.934 Y43.239 E113.10076
G1 X67.581 Y43.128 E113.13351
G1 X68.174 Y43.095 E113.16314
G1 X131.827 Y43.094 E116.3388
G1 X132.483 Y43.134 E116.37159
G1 X133.129 Y43.253 E116.40436
G1 X133.755 Y43.45 E116.43711
G1 X134.354 Y43.722 E116.46993
G1 X134.915 Y44.064 E116.50271
G1 X135.43 Y44.471 E116.53545
G1 X135.891 Y44.939 E116.56823
G1 X136.293 Y45.459 E116.60102
G1 X136.629 Y46.023 E116.63377
G1 X136.893 Y46.625 E116.66657
G1 X137.083 Y47.254 E116.69935
G1 X137.194 Y47.901 E116.7321
G1 X137.227 Y48.494 E116.76173
G1 X137.226 Y151.505 E121.90097
G1 X137.186 Y152.161 E121.93376
G1 X137.067 Y152.807 E121.96653
G1 X136.87 Y153.434 E121.99932
G1 X136.598 Y154.032 E122.03209
G1 X136.256 Y154.593 E122.06487
G1 X135.848 Y155.108 E122.09765
