;FLAVOR:Marlin
;TIME:3949
;Filament used: 3.81054m
;Layer height: 0.15
;MINX:60.373
;MINY:40.694
;MINZ:0.3
;MAXX:139.627
;MAXY:159.306
;MAXZ:6.3
;Generated with Cura_SteamEngine 4.11.0
M140 S60
M105
M190 S60
M104 S210
M105
M109 S210
M82 ;absolute extrusion mode
G21 ;metric values
 G90 ;absolute positioning
 M82 ;set extruder to absolute mode
 M107 ;start with the fan off
 G28 X0 Y0 ;move X/Y to min endstops
 G28 Z0 ;move Z to min endstops
 G1 Z15.0 F120 ;move the platform down 15mm
 G92 E0 ;zero the extruded length
 G1 F200 E6 ;extrude 6 mm of feed stock
 G92 E0 ;zero the extruded length again
 G1 F120 
 ;Put printing message on LCD screen
 M117 Printing...
G92 E0
G92 E0
G1 F2400 E-3
;LAYER_COUNT:41
;LAYER:0
M107
G0 F3600 X61.771 Y44.041 Z0.3
;TYPE:SKIRT
G1 F2400 E0
G1 F1800 X62.254 Y43.417 E0.03937
G1 X62.798 Y42.844 E0.07879
G1 X63.396 Y42.329 E0.11816
G1 X64.044 Y41.878 E0.15755
G1 X64.735 Y41.494 E0.19699
G1 X65.46 Y41.182 E0.23636
G1 X66.213 Y40.945 E0.27575
G1 X66.987 Y40.786 E0.31517
G1 X67.772 Y40.705 E0.35454
G1 X68.174 Y40.695 E0.3746
G1 X131.827 Y40.694 E3.55027
G1 X132.616 Y40.734 E3.58968
G1 X133.396 Y40.853 E3.62904
G1 X134.161 Y41.051 E3.66847
G1 X134.901 Y41.325 E3.70784
G1 X135.61 Y41.673 E3.74724
G1 X136.281 Y42.09 E3.78665
G1 X136.905 Y42.574 E3.82605
G1 X137.478 Y43.117 E3.86544
G1 X137.993 Y43.716 E3.90485
G1 X138.444 Y44.364 E3.94423
G1 X138.828 Y45.054 E3.98363
G1 X139.14 Y45.78 E4.02305
G1 X139.377 Y46.533 E4.06244
G1 X139.536 Y47.307 E4.10186
G1 X139.617 Y48.092 E4.14123
G1 X139.627 Y48.494 E4.16129
G1 X139.627 Y151.506 E9.30058
G1 X139.587 Y152.295 E9.34
G1 X139.468 Y153.075 E9.37936
G1 X139.27 Y153.84 E9.41879
G1 X138.996 Y154.58 E9.45815
G1 X138.648 Y155.289 E9.49756
G1 X138.23 Y155.96 E9.537
G1 X137.747 Y156.584 E9.57637
G1 X137.204 Y157.157 E9.61575
G1 X136.605 Y157.672 E9.65516
G1 X135.957 Y158.123 E9.69455
G1 X135.266 Y158.507 E9.73399
G1 X134.541 Y158.819 E9.77337
G1 X133.788 Y159.056 E9.81275
G1 X133.014 Y159.215 E9.85217
G1 X132.229 Y159.296 E9.89154
G1 X131.827 Y159.306 E9.91161
G1 X68.173 Y159.306 E13.08732
G1 X67.384 Y159.266 E13.12673
G1 X66.604 Y159.147 E13.16609
G1 X65.839 Y158.949 E13.20552
G1 X65.099 Y158.675 E13.24489
G1 X64.39 Y158.327 E13.28429
G1 X63.719 Y157.909 E13.32373
G1 X63.095 Y157.426 E13.3631
G1 X62.522 Y156.883 E13.40248
G1 X62.007 Y156.284 E13.44189
G1 X61.556 Y155.636 E13.48128
G1 X61.172 Y154.945 E13.52072
G1 X60.86 Y154.22 E13.5601
G1 X60.623 Y153.467 E13.59948
G1 X60.464 Y152.693 E13.6389
G1 X60.383 Y151.908 E13.67828
G1 X60.373 Y151.506 E13.69834
G1 X60.374 Y48.495 E18.83758
G1 X60.414 Y47.706 E18.87699
G1 X60.534 Y46.926 E18.91636
G1 X60.731 Y46.161 E18.95578
G1 X61.005 Y45.421 E18.99514
G1 X61.353 Y44.712 E19.03455
G1 X61.771 Y44.041 E19.07399
G0 F3600 X62.168 Y44.172
G1 F1800 X62.649 Y43.572 E19.11235
G1 X63.19 Y43.025 E19.15074
G1 X63.785 Y42.537 E19.18913
G1 X64.427 Y42.114 E19.22748
G1 X65.11 Y41.759 E19.26589
G1 X65.826 Y41.478 E19.30426
G1 X66.567 Y41.272 E19.34263
G1 X67.325 Y41.144 E19.38098
G1 X68.174 Y41.095 E19.42341
G1 X131.827 Y41.094 E22.59907
G1 X132.595 Y41.134 E22.63744
G1 X133.355 Y41.253 E22.67582
G1 X134.098 Y41.451 E22.71418
G1 X134.817 Y41.725 E22.75257
G1 X135.503 Y42.072 E22.79092
G1 X136.15 Y42.488 E22.8293
G1 X136.75 Y42.969 E22.86766
G1 X137.297 Y43.51 E22.90605
G1 X137.785 Y44.105 E22.94444
G1 X138.208 Y44.747 E22.98279
G1 X138.563 Y45.43 E23.0212
G1 X138.844 Y46.145 E23.05952
G1 X139.05 Y46.886 E23.0979
G1 X139.178 Y47.645 E23.1363
G1 X139.227 Y48.494 E23.17872
G1 X139.227 Y151.506 E28.31801
G1 X139.187 Y152.274 E28.35638
G1 X139.068 Y153.034 E28.39476
G1 X138.87 Y153.777 E28.43312
G1 X138.596 Y154.496 E28.47151
G1 X138.249 Y155.182 E28.50986
G1 X137.833 Y155.829 E28.54824
G1 X137.352 Y156.429 E28.5866
G1 X136.811 Y156.976 E28.62499
G1 X136.216 Y157.464 E28.66338
G1 X135.574 Y157.887 E28.70174
G1 X134.891 Y158.242 E28.74014
G1 X134.176 Y158.523 E28.77847
G1 X133.434 Y158.729 E28.81688
G1 X132.676 Y158.857 E28.85524
G1 X131.827 Y158.906 E28.89766
G1 X68.173 Y158.906 E32.07337
G1 X67.405 Y158.866 E32.11174
G1 X66.645 Y158.747 E32.15012
G1 X65.902 Y158.549 E32.18848
G1 X65.183 Y158.275 E32.22687
G1 X64.497 Y157.928 E32.26522
G1 X63.85 Y157.512 E32.3036
G1 X63.25 Y157.031 E32.34197
G1 X62.703 Y156.49 E32.38035
G1 X62.215 Y155.895 E32.41874
G1 X61.792 Y155.253 E32.4571
G1 X61.437 Y154.57 E32.4955
G1 X61.156 Y153.855 E32.53383
G1 X60.95 Y153.113 E32.57225
G1 X60.822 Y152.355 E32.6106
G1 X60.773 Y151.506 E32.65303
G1 X60.774 Y48.495 E37.79227
G1 X60.814 Y47.727 E37.83063
G1 X60.933 Y46.967 E37.86901
G1 X61.131 Y46.224 E37.90737
G1 X61.405 Y45.505 E37.94576
G1 X61.752 Y44.818 E37.98416
G1 X62.168 Y44.172 E38.02249
G0 F3600 X62.566 Y44.306
G1 F1800 X63.045 Y43.732 E38.05979
G1 X63.582 Y43.211 E38.09712
G1 X64.172 Y42.752 E38.13441
G1 X64.808 Y42.357 E38.17176
G1 X65.482 Y42.033 E38.20907
G1 X66.187 Y41.783 E38.24639
G1 X66.915 Y41.609 E38.28374
G1 X67.657 Y41.514 E38.32106
G1 X68.174 Y41.495 E38.34687
G1 X131.827 Y41.494 E41.52253
G1 X132.574 Y41.534 E41.55985
G1 X133.312 Y41.653 E41.59714
G1 X134.034 Y41.851 E41.63449
G1 X134.73 Y42.124 E41.67179
G1 X135.393 Y42.471 E41.70913
G1 X136.016 Y42.886 E41.74647
G1 X136.59 Y43.365 E41.78377
G1 X137.11 Y43.902 E41.82107
G1 X137.57 Y44.492 E41.85839
G1 X137.965 Y45.128 E41.89574
G1 X138.289 Y45.802 E41.93305
G1 X138.539 Y46.507 E41.97037
G1 X138.713 Y47.235 E42.00771
G1 X138.808 Y47.977 E42.04503
G1 X138.827 Y48.494 E42.07084
G1 X138.827 Y151.506 E47.21013
G1 X138.787 Y152.253 E47.24746
G1 X138.668 Y152.991 E47.28475
G1 X138.47 Y153.713 E47.3221
G1 X138.197 Y154.409 E47.3594
G1 X137.85 Y155.072 E47.39673
G1 X137.435 Y155.695 E47.43408
G1 X136.956 Y156.269 E47.47138
G1 X136.419 Y156.79 E47.50871
G1 X135.829 Y157.249 E47.546
G1 X135.193 Y157.644 E47.58335
G1 X134.519 Y157.968 E47.62066
G1 X133.814 Y158.218 E47.65798
G1 X133.086 Y158.392 E47.69532
G1 X132.344 Y158.487 E47.73264
G1 X131.827 Y158.506 E47.75845
G1 X68.173 Y158.506 E50.93416
G1 X67.426 Y158.466 E50.97149
G1 X66.688 Y158.347 E51.00878
G1 X65.966 Y158.149 E51.04613
G1 X65.27 Y157.876 E51.08343
G1 X64.607 Y157.529 E51.12076
G1 X63.984 Y157.114 E51.15811
G1 X63.41 Y156.635 E51.19541
G1 X62.889 Y156.098 E51.23274
G1 X62.43 Y155.508 E51.27003
G1 X62.035 Y154.872 E51.30738
G1 X61.711 Y154.198 E51.34469
G1 X61.461 Y153.493 E51.38201
G1 X61.287 Y152.765 E51.41935
G1 X61.192 Y152.023 E51.45667
G1 X61.173 Y151.506 E51.48248
G1 X61.174 Y48.495 E56.62172
G1 X61.214 Y47.748 E56.65905
G1 X61.333 Y47.009 E56.69639
G1 X61.531 Y46.288 E56.73369
G1 X61.804 Y45.592 E56.77099
G1 X62.151 Y44.929 E56.80833
G1 X62.566 Y44.306 E56.84567
G0 F3600 X62.963 Y44.445
G1 F1800 X63.439 Y43.897 E56.88189
G1 X63.973 Y43.404 E56.91814
G1 X64.558 Y42.974 E56.95437
G1 X65.187 Y42.61 E56.99062
G1 X65.852 Y42.317 E57.02688
G1 X66.545 Y42.099 E57.06312
G1 X67.257 Y41.959 E57.09932
G1 X68.174 Y41.895 E57.14518
G1 X131.827 Y41.894 E60.32085
G1 X132.552 Y41.934 E60.35707
G1 X133.269 Y42.053 E60.39333
G1 X133.968 Y42.251 E60.42958
G1 X134.641 Y42.524 E60.46581
G1 X135.28 Y42.869 E60.50204
G1 X135.877 Y43.283 E60.53828
G1 X136.425 Y43.759 E60.5745
G1 X136.918 Y44.293 E60.61076
G1 X137.348 Y44.878 E60.64698
G1 X137.712 Y45.507 E60.68324
G1 X138.005 Y46.171 E60.71945
G1 X138.223 Y46.864 E60.75569
G1 X138.363 Y47.577 E60.79194
G1 X138.427 Y48.494 E60.8378
G1 X138.427 Y151.506 E65.97709
G1 X138.387 Y152.231 E66.01332
G1 X138.268 Y152.948 E66.04958
G1 X138.07 Y153.647 E66.08582
G1 X137.797 Y154.32 E66.12206
G1 X137.452 Y154.959 E66.15828
G1 X137.038 Y155.556 E66.19453
G1 X136.562 Y156.104 E66.23074
G1 X136.028 Y156.597 E66.267
G1 X135.443 Y157.027 E66.30322
G1 X134.814 Y157.391 E66.33948
G1 X134.149 Y157.684 E66.37574
G1 X133.456 Y157.902 E66.41198
G1 X132.744 Y158.042 E66.44818
G1 X131.827 Y158.106 E66.49404
G1 X68.173 Y158.106 E69.66975
G1 X67.448 Y158.066 E69.70598
G1 X66.731 Y157.947 E69.74224
G1 X66.032 Y157.749 E69.77849
G1 X65.359 Y157.476 E69.81472
G1 X64.72 Y157.131 E69.85095
G1 X64.123 Y156.717 E69.88719
G1 X63.575 Y156.241 E69.92341
G1 X63.082 Y155.707 E69.95967
G1 X62.652 Y155.122 E69.99589
G1 X62.288 Y154.493 E70.03214
G1 X61.995 Y153.828 E70.0684
G1 X61.777 Y153.135 E70.10464
G1 X61.637 Y152.423 E70.14085
G1 X61.573 Y151.506 E70.18671
G1 X61.574 Y48.495 E75.32595
G1 X61.614 Y47.77 E75.36217
G1 X61.733 Y47.053 E75.39843
G1 X61.931 Y46.354 E75.43468
G1 X62.204 Y45.681 E75.47091
G1 X62.549 Y45.042 E75.50714
G1 X62.963 Y44.445 E75.54339
G0 F3600 X62.948 Y45.159
G1 F1800 X63.36 Y44.589 E75.57847
G1 X63.833 Y44.068 E75.61358
G1 X64.363 Y43.604 E75.64872
G1 X64.942 Y43.204 E75.68383
G1 X65.563 Y42.872 E75.71896
G1 X66.217 Y42.612 E75.75408
G1 X66.897 Y42.428 E75.78922
G1 X67.593 Y42.322 E75.82435
G1 X68.174 Y42.295 E75.85336
G1 X131.827 Y42.294 E79.02902
G1 X132.53 Y42.334 E79.06415
G1 X133.224 Y42.453 E79.09928
G1 X133.899 Y42.651 E79.13438
G1 X134.548 Y42.923 E79.16949
G1 X135.162 Y43.268 E79.20462
G1 X135.733 Y43.679 E79.23972
G1 X136.254 Y44.153 E79.27486
G1 X136.718 Y44.683 E79.31001
G1 X137.118 Y45.262 E79.34512
G1 X137.45 Y45.883 E79.38025
G1 X137.71 Y46.537 E79.41536
G1 X137.894 Y47.217 E79.4505
G1 X138 Y47.913 E79.48563
G1 X138.027 Y48.494 E79.51465
G1 X138.027 Y151.506 E84.65394
G1 X137.987 Y152.209 E84.68906
G1 X137.868 Y152.903 E84.72419
G1 X137.67 Y153.578 E84.75929
G1 X137.398 Y154.227 E84.7944
G1 X137.053 Y154.841 E84.82953
G1 X136.642 Y155.412 E84.86463
G1 X136.168 Y155.933 E84.89977
G1 X135.638 Y156.397 E84.93492
G1 X135.059 Y156.797 E84.97003
G1 X134.438 Y157.129 E85.00516
G1 X133.784 Y157.389 E85.04027
G1 X133.104 Y157.573 E85.07541
G1 X132.408 Y157.679 E85.11054
G1 X131.827 Y157.706 E85.13956
G1 X68.173 Y157.706 E88.31527
G1 X67.47 Y157.666 E88.3504
G1 X66.776 Y157.547 E88.38553
G1 X66.101 Y157.349 E88.42062
G1 X65.452 Y157.077 E88.45573
G1 X64.838 Y156.732 E88.49087
G1 X64.267 Y156.321 E88.52596
G1 X63.746 Y155.847 E88.56111
G1 X63.282 Y155.317 E88.59625
G1 X62.882 Y154.738 E88.63136
G1 X62.55 Y154.117 E88.66649
G1 X62.29 Y153.463 E88.7016
G1 X62.106 Y152.783 E88.73675
G1 X62 Y152.087 E88.77187
G1 X61.973 Y151.506 E88.80089
G1 X61.974 Y48.495 E93.94013
G1 X62.014 Y47.792 E93.97526
G1 X62.133 Y47.098 E94.01039
G1 X62.331 Y46.423 E94.04548
G1 X62.603 Y45.773 E94.08063
G1 X62.948 Y45.159 E94.11577
G0 F3600 X63.346 Y45.281
G1 F1800 X63.756 Y44.737 E94.14976
G1 X64.227 Y44.246 E94.1837
G1 X64.752 Y43.812 E94.21768
G1 X65.324 Y43.443 E94.25164
G1 X65.936 Y43.144 E94.28563
G1 X66.578 Y42.919 E94.31957
G1 X67.243 Y42.77 E94.35357
G1 X68.174 Y42.695 E94.40016
G1 X131.827 Y42.694 E97.57583
G1 X132.507 Y42.734 E97.60981
G1 X133.177 Y42.853 E97.64376
G1 X133.829 Y43.05 E97.67774
G1 X134.453 Y43.322 E97.7117
G1 X135.041 Y43.666 E97.74569
G1 X135.584 Y44.076 E97.77963
G1 X136.076 Y44.547 E97.81361
G1 X136.51 Y45.072 E97.8476
G1 X136.879 Y45.644 E97.88156
G1 X137.178 Y46.256 E97.91554
G1 X137.403 Y46.898 E97.94948
G1 X137.552 Y47.563 E97.98348
G1 X137.627 Y48.494 E98.03008
G1 X137.627 Y151.506 E103.16937
G1 X137.587 Y152.186 E103.20335
G1 X137.468 Y152.856 E103.2373
G1 X137.271 Y153.508 E103.27128
G1 X136.999 Y154.132 E103.30524
G1 X136.655 Y154.72 E103.33923
G1 X136.245 Y155.264 E103.37321
G1 X135.774 Y155.755 E103.40716
G1 X135.249 Y156.189 E103.44114
G1 X134.677 Y156.558 E103.4751
G1 X134.065 Y156.857 E103.50908
G1 X133.423 Y157.082 E103.54302
G1 X132.758 Y157.231 E103.57702
G1 X131.827 Y157.306 E103.62362
G1 X68.173 Y157.306 E106.79933
G1 X67.493 Y157.266 E106.83331
G1 X66.823 Y157.147 E106.86726
G1 X66.171 Y156.95 E106.90124
G1 X65.547 Y156.678 E106.93521
G1 X64.959 Y156.334 E106.96919
G1 X64.415 Y155.924 E107.00318
G1 X63.924 Y155.453 E107.03712
G1 X63.49 Y154.928 E107.07111
G1 X63.121 Y154.356 E107.10507
G1 X62.822 Y153.744 E107.13905
G1 X62.597 Y153.102 E107.17299
G1 X62.448 Y152.437 E107.20699
G1 X62.373 Y151.506 E107.25358
G1 X62.374 Y48.495 E112.39282
G1 X62.414 Y47.815 E112.42681
G1 X62.533 Y47.145 E112.46076
G1 X62.73 Y46.493 E112.49474
G1 X63.003 Y45.869 E112.52872
G1 X63.346 Y45.281 E112.56268
G0 F3600 X63.744 Y45.407
G1 F1800 X64.152 Y44.892 E112.59546
G1 X64.619 Y44.43 E112.62823
G1 X65.139 Y44.029 E112.66099
G1 X65.704 Y43.693 E112.69379
G1 X66.305 Y43.429 E112.72654
G1 X66.934 Y43.239 E112.75932
G1 X67.581 Y43.128 E112.79207
G1 X68.174 Y43.095 E112.8217
G1 X131.827 Y43.094 E115.99736
G1 X132.483 Y43.134 E116.03015
G1 X133.129 Y43.253 E116.06292
G1 X133.755 Y43.45 E116.09566
G1 X134.354 Y43.722 E116.12849
G1 X134.915 Y44.064 E116.16126
G1 X135.43 Y44.471 E116.19401
G1 X135.891 Y44.939 E116.22679
G1 X136.293 Y45.459 E116.25958
G1 X136.629 Y46.023 E116.29233
G1 X136.893 Y46.625 E116.32513
G1 X137.083 Y47.254 E116.35791
G1 X137.194 Y47.901 E116.39066
G1 X137.227 Y48.494 E116.42029
G1 X137.227 Y151.506 E121.55958
G1 X137.187 Y152.162 E121.59237
G1 X137.068 Y152.808 E121.62514
G1 X136.871 Y153.435 E121.65793
G1 X136.599 Y154.033 E121.6907
G1 X136.257 Y154.594 E121.72348
G1 X135.849 Y155.109 E121.75626
G1 X135.382 Y155.571 E121.78904
G1 X134.862 Y155.972 E121.8218
G1 X134.298 Y156.308 E121.85455
G1 X133.696 Y156.572 E121.88734
G1 X133.067 Y156.762 E121.92013
G1 X132.42 Y156.873 E121.95288
G1 X131.827 Y156.906 E121.98251
G1 X68.173 Y156.906 E125.15822
G1 X67.517 Y156.866 E125.19101
G1 X66.871 Y156.747 E125.22378
G1 X66.244 Y156.55 E125.25657
G1 X65.646 Y156.278 E125.28934
G1 X65.085 Y155.936 E125.32212
G1 X64.57 Y155.528 E125.3549
G1 X64.108 Y155.061 E125.38767
G1 X63.707 Y154.541 E125.42043
G1 X63.371 Y153.977 E125.45319
G1 X63.107 Y153.375 E125.48598
G1 X62.917 Y152.746 E125.51876
G1 X62.806 Y152.099 E125.55151
G1 X62.773 Y151.506 E125.58115
G1 X62.774 Y48.495 E130.72038
G1 X62.814 Y47.839 E130.75317
G1 X62.933 Y47.193 E130.78595
G1 X63.13 Y46.566 E130.81873
G1 X63.402 Y45.968 E130.85151
G1 X63.744 Y45.407 E130.88429
G0 F3600 X64.141 Y45.539
G1 F1800 X64.547 Y45.054 E130.91584
G1 X65.01 Y44.624 E130.94737
G1 X65.524 Y44.255 E130.97894
G1 X66.08 Y43.955 E131.01046
G1 X66.669 Y43.727 E131.04197
G1 X67.283 Y43.575 E131.07352
G1 X68.174 Y43.495 E131.11815
G1 X131.827 Y43.494 E134.29381
G1 X132.458 Y43.534 E134.32536
G1 X133.079 Y43.653 E134.3569
G1 X133.679 Y43.85 E134.38841
G1 X134.251 Y44.121 E134.41999
G1 X134.783 Y44.461 E134.45149
G1 X135.268 Y44.867 E134.48304
G1 X135.698 Y45.33 E134.51457
G1 X136.067 Y45.844 E134.54614
G1 X136.367 Y46.4 E134.57765
G1 X136.595 Y46.989 E134.60916
G1 X136.747 Y47.603 E134.64072
G1 X136.827 Y48.494 E134.68535
G1 X136.827 Y151.506 E139.82464
G1 X136.787 Y152.137 E139.85619
G1 X136.668 Y152.758 E139.88773
G1 X136.471 Y153.358 E139.91924
G1 X136.2 Y153.93 E139.95082
G1 X135.86 Y154.462 E139.98232
G1 X135.454 Y154.947 E140.01387
G1 X134.991 Y155.377 E140.0454
G1 X134.477 Y155.746 E140.07696
G1 X133.921 Y156.046 E140.10848
G1 X133.332 Y156.274 E140.13999
G1 X132.718 Y156.426 E140.17155
G1 X131.827 Y156.506 E140.21618
G1 X68.173 Y156.506 E143.39189
G1 X67.542 Y156.466 E143.42344
G1 X66.921 Y156.347 E143.45498
G1 X66.321 Y156.15 E143.48649
G1 X65.749 Y155.879 E143.51807
G1 X65.217 Y155.539 E143.54956
G1 X64.732 Y155.133 E143.58112
G1 X64.302 Y154.67 E143.61264
G1 X63.933 Y154.156 E143.64421
G1 X63.633 Y153.6 E143.67573
G1 X63.405 Y153.011 E143.70724
G1 X63.253 Y152.397 E143.7388
G1 X63.173 Y151.506 E143.78343
G1 X63.174 Y48.495 E148.92267
G1 X63.214 Y47.864 E148.95421
G1 X63.333 Y47.243 E148.98576
G1 X63.53 Y46.643 E149.01726
G1 X63.801 Y46.071 E149.04884
G1 X64.141 Y45.539 E149.08034
G0 F3600 X64.539 Y45.676
G1 F1800 X64.941 Y45.223 E149.11056
G1 X65.399 Y44.826 E149.1408
G1 X65.906 Y44.493 E149.17106
G1 X66.452 Y44.229 E149.20132
G1 X67.028 Y44.04 E149.23156
G1 X67.624 Y43.928 E149.26182
G1 X68.174 Y43.895 E149.2893
G1 X131.827 Y43.894 E152.46497
G1 X132.432 Y43.934 E152.49522
G1 X133.026 Y44.053 E152.52544
G1 X133.6 Y44.249 E152.5557
G1 X134.143 Y44.519 E152.58595
G1 X134.645 Y44.859 E152.6162
G1 X135.099 Y45.261 E152.64646
G1 X135.496 Y45.719 E152.6767
G1 X135.829 Y46.226 E152.70696
G1 X136.092 Y46.772 E152.73719
G1 X136.282 Y47.348 E152.76745
G1 X136.394 Y47.944 E152.79771
