;FLAVOR:Marlin
;TIME:8385
;Filament used: 4.95311m
;Layer height: 0.1
;MINX:60.373
;MINY:40.694
;MINZ:0.3
;MAXX:139.627
;MAXY:159.306
;MAXZ:13
;Generated with Cura_SteamEngine 4.13.1
M140 S60
M105
M190 S60
M104 S210
M105
M109 S210
M82 ;absolute extrusion mode
G21 ;metric values
 G90 ;absolute positioning
 M82 ;set extruder to absolute mode
 M107 ;start with the fan off
 G28 X0 Y0 ;move X/Y to min endstops
 G28 Z0 ;move Z to min endstops
 G1 Z15.0 F120 ;move the platform down 15mm
 G92 E0 ;zero the extruded length
 G1 F200 E6 ;extrude 6 mm of feed stock
 G92 E0 ;zero the extruded length again
 G1 F120 
 ;Put printing message on LCD screen
 M117 Printing...
G92 E0
G92 E0
G1 F2400 E-3
;LAYER_COUNT:128
;LAYER:0
M107
G0 F3600 X61.77 Y44.04 Z0.3
;TYPE:SKIRT
G1 F2400 E0
G1 F1800 X62.253 Y43.416 E0.03937
G1 X62.796 Y42.843 E0.07875
G1 X63.395 Y42.328 E0.11816
G1 X64.043 Y41.877 E0.15755
G1 X64.734 Y41.493 E0.19699
G1 X65.459 Y41.181 E0.23637
G1 X66.212 Y40.944 E0.27575
G1 X66.986 Y40.785 E0.31517
G1 X67.771 Y40.704 E0.35455
G1 X68.173 Y40.694 E0.37461
G1 X131.827 Y40.694 E3.55032
G1 X132.616 Y40.734 E3.58973
G1 X133.396 Y40.853 E3.6291
G1 X134.161 Y41.051 E3.66852
G1 X134.901 Y41.325 E3.70789
G1 X135.61 Y41.673 E3.74729
G1 X136.281 Y42.091 E3.78673
G1 X136.905 Y42.574 E3.8261
G1 X137.478 Y43.117 E3.86549
G1 X137.993 Y43.716 E3.9049
G1 X138.444 Y44.364 E3.94428
G1 X138.828 Y45.055 E3.98372
G1 X139.14 Y45.78 E4.0231
G1 X139.377 Y46.533 E4.06249
G1 X139.536 Y47.307 E4.10191
G1 X139.617 Y48.092 E4.14128
G1 X139.627 Y48.494 E4.16134
G1 X139.626 Y151.505 E9.30058
G1 X139.586 Y152.294 E9.33999
G1 X139.466 Y153.074 E9.37937
G1 X139.269 Y153.839 E9.41878
G1 X138.995 Y154.579 E9.45815
G1 X138.647 Y155.288 E9.49755
G1 X138.229 Y155.959 E9.53699
G1 X137.746 Y156.583 E9.57636
G1 X137.202 Y157.156 E9.61578
G1 X136.604 Y157.671 E9.65515
G1 X135.956 Y158.122 E9.69454
G1 X135.265 Y158.506 E9.73398
G1 X134.54 Y158.818 E9.77335
G1 X133.787 Y159.055 E9.81274
G1 X133.013 Y159.214 E9.85216
G1 X132.228 Y159.295 E9.89153
G1 X131.826 Y159.305 E9.91159
G1 X68.173 Y159.306 E13.08725
G1 X67.384 Y159.266 E13.12667
G1 X66.604 Y159.147 E13.16603
G1 X65.839 Y158.949 E13.20546
G1 X65.099 Y158.675 E13.24483
G1 X64.39 Y158.327 E13.28423
G1 X63.719 Y157.91 E13.32364
G1 X63.095 Y157.426 E13.36304
G1 X62.522 Y156.883 E13.40243
G1 X62.007 Y156.284 E13.44184
G1 X61.556 Y155.636 E13.48122
G1 X61.172 Y154.946 E13.52062
G1 X60.86 Y154.22 E13.56004
G1 X60.623 Y153.467 E13.59943
G1 X60.464 Y152.693 E13.63885
G1 X60.383 Y151.908 E13.67822
G1 X60.373 Y151.506 E13.69828
G1 X60.373 Y48.494 E18.83757
G1 X60.413 Y47.705 E18.87699
G1 X60.532 Y46.925 E18.91635
G1 X60.73 Y46.16 E18.95578
G1 X61.004 Y45.42 E18.99514
G1 X61.352 Y44.711 E19.03455
G1 X61.77 Y44.04 E19.07399
G0 F3600 X62.167 Y44.171
G1 F1800 X62.648 Y43.571 E19.11235
G1 X63.189 Y43.024 E19.15074
G1 X63.784 Y42.536 E19.18913
G1 X64.426 Y42.113 E19.22748
G1 X65.109 Y41.758 E19.26589
G1 X65.824 Y41.477 E19.30421
G1 X66.566 Y41.271 E19.34263
G1 X67.324 Y41.143 E19.38099
G1 X68.173 Y41.094 E19.42341
G1 X131.827 Y41.094 E22.59912
G1 X132.595 Y41.134 E22.63749
G1 X133.355 Y41.253 E22.67587
G1 X134.098 Y41.451 E22.71423
G1 X134.817 Y41.725 E22.75262
G1 X135.503 Y42.072 E22.79097
G1 X136.15 Y42.488 E22.82935
G1 X136.75 Y42.969 E22.86771
G1 X137.297 Y43.51 E22.9061
G1 X137.785 Y44.105 E22.94449
G1 X138.208 Y44.747 E22.98285
G1 X138.563 Y45.43 E23.02125
G1 X138.844 Y46.145 E23.05958
G1 X139.05 Y46.887 E23.09799
G1 X139.178 Y47.645 E23.13635
G1 X139.227 Y48.494 E23.17877
G1 X139.226 Y151.505 E28.31801
G1 X139.186 Y152.273 E28.35638
G1 X139.067 Y153.033 E28.39476
G1 X138.869 Y153.776 E28.43312
G1 X138.595 Y154.495 E28.47151
G1 X138.248 Y155.182 E28.50991
G1 X137.832 Y155.828 E28.54824
G1 X137.351 Y156.428 E28.58661
G1 X136.81 Y156.975 E28.62499
G1 X136.215 Y157.463 E28.66338
G1 X135.573 Y157.886 E28.70174
G1 X134.89 Y158.241 E28.74014
G1 X134.174 Y158.522 E28.77852
G1 X133.433 Y158.728 E28.81689
G1 X132.675 Y158.856 E28.85524
G1 X131.826 Y158.905 E28.89767
G1 X68.173 Y158.906 E32.07333
G1 X67.405 Y158.866 E32.11169
G1 X66.645 Y158.747 E32.15007
G1 X65.902 Y158.549 E32.18843
G1 X65.183 Y158.275 E32.22682
G1 X64.497 Y157.928 E32.26518
G1 X63.85 Y157.512 E32.30355
G1 X63.25 Y157.031 E32.34192
G1 X62.703 Y156.49 E32.3803
G1 X62.215 Y155.895 E32.41869
G1 X61.792 Y155.253 E32.45705
G1 X61.437 Y154.57 E32.49545
G1 X61.156 Y153.855 E32.53378
G1 X60.95 Y153.114 E32.57215
G1 X60.822 Y152.355 E32.61055
G1 X60.773 Y151.506 E32.65298
G1 X60.773 Y48.494 E37.79227
G1 X60.813 Y47.726 E37.83064
G1 X60.932 Y46.966 E37.86901
G1 X61.13 Y46.223 E37.90738
G1 X61.404 Y45.504 E37.94576
G1 X61.751 Y44.818 E37.98412
G1 X62.167 Y44.171 E38.02249
G0 F3600 X62.565 Y44.305
G1 F1800 X63.044 Y43.731 E38.05979
G1 X63.581 Y43.21 E38.09712
G1 X64.171 Y42.751 E38.13441
G1 X64.807 Y42.356 E38.17176
G1 X65.481 Y42.032 E38.20907
G1 X66.186 Y41.782 E38.24639
G1 X66.914 Y41.608 E38.28374
G1 X67.656 Y41.513 E38.32106
G1 X68.173 Y41.494 E38.34687
G1 X131.827 Y41.494 E41.52258
G1 X132.574 Y41.534 E41.5599
G1 X133.312 Y41.653 E41.59719
G1 X134.034 Y41.851 E41.63454
G1 X134.73 Y42.124 E41.67184
G1 X135.393 Y42.471 E41.70918
G1 X136.016 Y42.886 E41.74652
G1 X136.59 Y43.365 E41.78382
G1 X137.111 Y43.902 E41.82115
G1 X137.57 Y44.492 E41.85844
G1 X137.965 Y45.128 E41.8958
G1 X138.289 Y45.802 E41.93311
G1 X138.539 Y46.507 E41.97042
G1 X138.713 Y47.235 E42.00777
G1 X138.808 Y47.977 E42.04509
G1 X138.827 Y48.494 E42.0709
G1 X138.826 Y151.505 E47.21014
G1 X138.786 Y152.252 E47.24746
G1 X138.667 Y152.991 E47.2848
G1 X138.469 Y153.712 E47.32211
G1 X138.196 Y154.408 E47.3594
G1 X137.849 Y155.071 E47.39674
G1 X137.434 Y155.694 E47.43408
G1 X136.955 Y156.268 E47.47138
G1 X136.418 Y156.789 E47.50871
G1 X135.828 Y157.248 E47.546
G1 X135.192 Y157.643 E47.58336
G1 X134.518 Y157.967 E47.62067
G1 X133.813 Y158.217 E47.65798
G1 X133.085 Y158.391 E47.69533
G1 X132.343 Y158.486 E47.73265
G1 X131.826 Y158.505 E47.75846
G1 X68.173 Y158.506 E50.93412
G1 X67.426 Y158.466 E50.97144
G1 X66.688 Y158.347 E51.00874
G1 X65.966 Y158.149 E51.04609
G1 X65.27 Y157.876 E51.08339
G1 X64.607 Y157.529 E51.12072
G1 X63.984 Y157.114 E51.15807
G1 X63.41 Y156.635 E51.19536
G1 X62.89 Y156.098 E51.23266
G1 X62.43 Y155.508 E51.26998
G1 X62.035 Y154.872 E51.30733
G1 X61.711 Y154.198 E51.34464
G1 X61.461 Y153.493 E51.38196
G1 X61.287 Y152.765 E51.4193
G1 X61.192 Y152.023 E51.45663
G1 X61.173 Y151.506 E51.48244
G1 X61.173 Y48.494 E56.62173
G1 X61.213 Y47.747 E56.65905
G1 X61.332 Y47.009 E56.69634
G1 X61.53 Y46.287 E56.73369
G1 X61.803 Y45.591 E56.77099
G1 X62.15 Y44.928 E56.80833
G1 X62.565 Y44.305 E56.84567
G0 F3600 X62.962 Y44.444
G1 F1800 X63.438 Y43.896 E56.88189
G1 X63.972 Y43.403 E56.91814
G1 X64.557 Y42.973 E56.95437
G1 X65.186 Y42.609 E56.99062
G1 X65.851 Y42.316 E57.02688
G1 X66.544 Y42.098 E57.06312
G1 X67.256 Y41.958 E57.09932
G1 X68.173 Y41.894 E57.14518
G1 X131.827 Y41.894 E60.3209
G1 X132.552 Y41.934 E60.35712
G1 X133.269 Y42.053 E60.39338
G1 X133.968 Y42.251 E60.42963
G1 X134.641 Y42.524 E60.46586
G1 X135.28 Y42.869 E60.50209
G1 X135.877 Y43.283 E60.53833
G1 X136.425 Y43.759 E60.57455
G1 X136.918 Y44.293 E60.61081
G1 X137.348 Y44.878 E60.64703
G1 X137.712 Y45.507 E60.68329
G1 X138.005 Y46.172 E60.71954
G1 X138.223 Y46.865 E60.75578
G1 X138.363 Y47.577 E60.79199
G1 X138.427 Y48.494 E60.83785
G1 X138.426 Y151.505 E65.97709
G1 X138.386 Y152.23 E66.01331
G1 X138.267 Y152.947 E66.04957
G1 X138.069 Y153.646 E66.08582
G1 X137.796 Y154.319 E66.12205
G1 X137.451 Y154.958 E66.15828
G1 X137.037 Y155.555 E66.19453
G1 X136.561 Y156.103 E66.23074
G1 X136.027 Y156.596 E66.267
G1 X135.442 Y157.026 E66.30322
G1 X134.813 Y157.39 E66.33948
G1 X134.148 Y157.683 E66.37573
G1 X133.455 Y157.901 E66.41198
G1 X132.743 Y158.041 E66.44818
G1 X131.826 Y158.105 E66.49404
G1 X68.173 Y158.106 E69.6697
G1 X67.448 Y158.066 E69.70593
G1 X66.731 Y157.947 E69.74219
G1 X66.032 Y157.749 E69.77843
G1 X65.359 Y157.476 E69.81467
G1 X64.72 Y157.131 E69.85089
G1 X64.123 Y156.717 E69.88714
G1 X63.575 Y156.241 E69.92335
G1 X63.082 Y155.707 E69.95961
G1 X62.652 Y155.122 E69.99583
G1 X62.288 Y154.493 E70.03209
G1 X61.995 Y153.829 E70.0683
G1 X61.777 Y153.136 E70.10454
G1 X61.637 Y152.423 E70.1408
G1 X61.573 Y151.506 E70.18666
G1 X61.573 Y48.494 E75.32595
G1 X61.613 Y47.769 E75.36217
G1 X61.732 Y47.052 E75.39843
G1 X61.93 Y46.353 E75.43468
G1 X62.203 Y45.68 E75.47091
G1 X62.548 Y45.041 E75.50714
G1 X62.962 Y44.444 E75.54339
G0 F3600 X62.947 Y45.159
G1 F1800 X63.358 Y44.588 E75.57848
G1 X63.832 Y44.067 E75.61363
G1 X64.362 Y43.603 E75.64877
G1 X64.941 Y43.203 E75.68388
G1 X65.562 Y42.871 E75.71901
G1 X66.216 Y42.611 E75.75412
G1 X66.896 Y42.427 E75.78927
G1 X67.592 Y42.321 E75.82439
G1 X68.173 Y42.294 E75.85341
G1 X131.827 Y42.294 E79.02912
G1 X132.53 Y42.334 E79.06425
G1 X133.224 Y42.453 E79.09938
G1 X133.899 Y42.651 E79.13447
G1 X134.548 Y42.923 E79.16958
G1 X135.162 Y43.268 E79.20472
G1 X135.733 Y43.679 E79.23982
G1 X136.254 Y44.153 E79.27496
G1 X136.718 Y44.683 E79.3101
G1 X137.118 Y45.262 E79.34521
G1 X137.45 Y45.883 E79.38034
G1 X137.71 Y46.537 E79.41545
G1 X137.894 Y47.217 E79.4506
G1 X138 Y47.913 E79.48572
G1 X138.027 Y48.494 E79.51474
G1 X138.026 Y151.505 E84.65398
G1 X137.986 Y152.208 E84.68911
G1 X137.867 Y152.902 E84.72424
G1 X137.669 Y153.577 E84.75933
G1 X137.397 Y154.227 E84.79449
G1 X137.052 Y154.841 E84.82962
G1 X136.64 Y155.411 E84.86471
G1 X136.167 Y155.932 E84.89982
G1 X135.637 Y156.396 E84.93496
G1 X135.058 Y156.796 E84.97007
G1 X134.437 Y157.128 E85.0052
G1 X133.783 Y157.388 E85.04032
G1 X133.103 Y157.572 E85.07546
G1 X132.407 Y157.678 E85.11058
G1 X131.826 Y157.705 E85.1396
G1 X68.173 Y157.706 E88.31526
G1 X67.47 Y157.666 E88.35039
G1 X66.776 Y157.547 E88.38552
G1 X66.101 Y157.349 E88.42062
G1 X65.452 Y157.077 E88.45572
G1 X64.838 Y156.732 E88.49086
G1 X64.267 Y156.321 E88.52596
G1 X63.746 Y155.847 E88.5611
G1 X63.282 Y155.317 E88.59624
G1 X62.882 Y154.738 E88.63135
G1 X62.55 Y154.117 E88.66649
G1 X62.29 Y153.463 E88.7016
G1 X62.106 Y152.783 E88.73674
G1 X62 Y152.087 E88.77187
G1 X61.973 Y151.506 E88.80088
G1 X61.973 Y48.494 E93.94017
G1 X62.013 Y47.791 E93.9753
G1 X62.132 Y47.097 E94.01043
G1 X62.33 Y46.422 E94.04553
G1 X62.602 Y45.773 E94.08063
G1 X62.947 Y45.159 E94.11577
G0 F3600 X63.345 Y45.28
G1 F1800 X63.755 Y44.736 E94.14976
G1 X64.226 Y44.245 E94.1837
G1 X64.751 Y43.811 E94.21768
G1 X65.323 Y43.442 E94.25164
G1 X65.935 Y43.143 E94.28563
G1 X66.577 Y42.918 E94.31957
G1 X67.242 Y42.769 E94.35357
G1 X68.173 Y42.694 E94.40016
G1 X131.827 Y42.694 E97.57588
G1 X132.507 Y42.734 E97.60986
G1 X133.177 Y42.853 E97.64381
G1 X133.829 Y43.05 E97.67779
G1 X134.453 Y43.322 E97.71175
G1 X135.041 Y43.666 E97.74574
G1 X135.585 Y44.076 E97.77972
G1 X136.076 Y44.547 E97.81367
G1 X136.51 Y45.072 E97.84765
G1 X136.879 Y45.644 E97.88161
G1 X137.178 Y46.256 E97.91559
G1 X137.403 Y46.898 E97.94953
G1 X137.552 Y47.563 E97.98353
G1 X137.627 Y48.494 E98.03013
G1 X137.626 Y151.505 E103.16937
G1 X137.586 Y152.185 E103.20335
G1 X137.467 Y152.855 E103.2373
G1 X137.27 Y153.507 E103.27128
G1 X136.997 Y154.131 E103.30526
G1 X136.654 Y154.719 E103.33923
G1 X136.244 Y155.263 E103.37321
G1 X135.773 Y155.754 E103.40716
G1 X135.248 Y156.188 E103.44114
G1 X134.676 Y156.557 E103.4751
G1 X134.064 Y156.856 E103.50908
G1 X133.422 Y157.081 E103.54302
G1 X132.757 Y157.23 E103.57702
G1 X131.826 Y157.305 E103.62362
G1 X68.173 Y157.306 E106.79928
G1 X67.493 Y157.266 E106.83326
G1 X66.823 Y157.147 E106.86721
G1 X66.171 Y156.95 E106.90119
G1 X65.547 Y156.678 E106.93515
G1 X64.959 Y156.334 E106.96914
G1 X64.416 Y155.924 E107.00309
G1 X63.924 Y155.453 E107.03707
G1 X63.49 Y154.928 E107.07105
G1 X63.121 Y154.356 E107.10501
G1 X62.822 Y153.744 E107.13899
G1 X62.597 Y153.102 E107.17293
G1 X62.448 Y152.437 E107.20693
G1 X62.373 Y151.506 E107.25353
G1 X62.373 Y48.494 E112.39282
G1 X62.413 Y47.814 E112.4268
G1 X62.532 Y47.144 E112.46075
G1 X62.729 Y46.492 E112.49473
G1 X63.001 Y45.868 E112.52869
G1 X63.345 Y45.28 E112.56268
G0 F3600 X63.743 Y45.406
G1 F1800 X64.151 Y44.891 E112.59546
G1 X64.618 Y44.429 E112.62823
G1 X65.138 Y44.028 E112.66099
G1 X65.702 Y43.692 E112.69375
G1 X66.304 Y43.428 E112.72654
G1 X66.933 Y43.238 E112.75932
G1 X67.58 Y43.127 E112.79207
G1 X68.173 Y43.094 E112.82171
G1 X131.827 Y43.094 E115.99742
G1 X132.483 Y43.134 E116.0302
G1 X133.129 Y43.253 E116.06298
G1 X133.756 Y43.45 E116.09577
G1 X134.354 Y43.722 E116.12854
G1 X134.915 Y44.064 E116.16132
G1 X135.43 Y44.472 E116.1941
G1 X135.892 Y44.939 E116.22687
G1 X136.293 Y45.459 E116.25963
G1 X136.629 Y46.023 E116.29239
G1 X136.893 Y46.625 E116.32518
G1 X137.083 Y47.254 E116.35796
G1 X137.194 Y47.901 E116.39071
G1 X137.227 Y48.494 E116.42034
G1 X137.226 Y151.505 E121.55958
G1 X137.186 Y152.161 E121.59237
G1 X137.067 Y152.807 E121.62514
G1 X136.87 Y153.434 E121.65793
G1 X136.598 Y154.032 E121.69071
G1 X136.256 Y154.593 E121.72349
G1 X135.848 Y155.108 E121.75627
G1 X135.381 Y155.57 E121.78904
G1 X134.861 Y155.971 E121.8218
G1 X134.296 Y156.307 E121.8546
G1 X133.695 Y156.571 E121.88735
G1 X133.066 Y156.761 E121.92013
G1 X132.419 Y156.872 E121.95288
G1 X131.826 Y156.905 E121.98251
G1 X68.173 Y156.906 E125.15817
G1 X67.517 Y156.866 E125.19096
G1 X66.871 Y156.747 E125.22373
G1 X66.245 Y156.55 E125.25647
G1 X65.646 Y156.278 E125.28929
G1 X65.085 Y155.936 E125.32207
G1 X64.57 Y155.529 E125.35482
G1 X64.109 Y155.061 E125.38759
G1 X63.707 Y154.541 E125.42038
G1 X63.371 Y153.977 E125.45314
G1 X63.107 Y153.375 E125.48593
G1 X62.917 Y152.746 E125.51871
G1 X62.806 Y152.099 E125.55146
G1 X62.773 Y151.506 E125.5811
G1 X62.773 Y48.494 E130.72038
G1 X62.813 Y47.838 E130.75317
G1 X62.932 Y47.192 E130.78595
G1 X63.129 Y46.565 E130.81873
G1 X63.401 Y45.967 E130.85151
G1 X63.743 Y45.406 E130.88429
G0 F3600 X64.14 Y45.538
G1 F1800 X64.546 Y45.053 E130.91584
G1 X65.009 Y44.623 E130.94737
G1 X65.523 Y44.254 E130.97894
G1 X66.079 Y43.954 E131.01046
G1 X66.668 Y43.726 E131.04197
G1 X67.282 Y43.574 E131.07352
G1 X68.173 Y43.494 E131.11815
G1 X131.827 Y43.494 E134.29386
G1 X132.458 Y43.534 E134.32541
G1 X133.079 Y43.653 E134.35695
G1 X133.679 Y43.85 E134.38846
G1 X134.251 Y44.121 E134.42004
G1 X134.783 Y44.461 E134.45154
G1 X135.268 Y44.867 E134.48309
G1 X135.698 Y45.33 E134.51462
G1 X136.067 Y45.844 E134.54619
G1 X136.367 Y46.4 E134.5777
G1 X136.595 Y46.989 E134.60921
G1 X136.747 Y47.603 E134.64077
G1 X136.827 Y48.494 E134.6854
G1 X136.826 Y151.505 E139.82464
G1 X136.786 Y152.136 E139.85619
G1 X136.667 Y152.757 E139.88773
G1 X136.47 Y153.357 E139.91924
G1 X136.199 Y153.929 E139.95082
G1 X135.859 Y154.461 E139.98232
G1 X135.453 Y154.946 E140.01387
G1 X134.99 Y155.376 E140.0454
G1 X134.476 Y155.745 E140.07696
G1 X133.92 Y156.045 E140.10848
G1 X133.331 Y156.273 E140.13999
G1 X132.717 Y156.425 E140.17155
G1 X131.826 Y156.505 E140.21618
G1 X68.173 Y156.506 E143.39184
G1 X67.542 Y156.466 E143.42339
G1 X66.921 Y156.347 E143.45493
G1 X66.321 Y156.15 E143.48644
G1 X65.749 Y155.879 E143.51802
G1 X65.217 Y155.539 E143.54951
G1 X64.732 Y155.133 E143.58107
G1 X64.302 Y154.67 E143.61259
G1 X63.933 Y154.156 E143.64416
G1 X63.633 Y153.6 E143.67568
G1 X63.405 Y153.011 E143.70719
G1 X63.253 Y152.397 E143.73875
G1 X63.173 Y151.506 E143.78338
G1 X63.173 Y48.494 E148.92267
G1 X63.213 Y47.863 E148.95421
G1 X63.332 Y47.242 E148.98576
G1 X63.529 Y46.642 E149.01726
G1 X63.8 Y46.07 E149.04884
G1 X64.14 Y45.538 E149.08034
G0 F3600 X64.538 Y45.675
G1 F1800 X64.94 Y45.222 E149.11056
G1 X65.398 Y44.825 E149.1408
G1 X65.905 Y44.492 E149.17106
G1 X66.451 Y44.228 E149.20132
G1 X67.027 Y44.039 E149.23156
G1 X67.623 Y43.927 E149.26182
G1 X68.173 Y43.894 E149.2893
G1 X131.827 Y43.894 E152.46502
G1 X132.432 Y43.934 E152.49527
G1 X133.026 Y44.053 E152.52549
G1 X133.6 Y44.249 E152.55575
G1 X134.143 Y44.52 E152.58603
G1 X134.646 Y44.859 E152.61629
G1 X135.099 Y45.261 E152.6465
G1 X135.496 Y45.719 E152.67674
G1 X135.829 Y46.226 E152.70701
G1 X136.093 Y46.772 E152.73726
G1 X136.282 Y47.348 E152.76751
G1 X136.394 Y47.944 E152.79776
